X:5
T:Flatworld
I:last changed 14/2/2016
F:http://www.campin.me.uk/Music/Edinbal.abc
C:Andy Cutting
M:3/4
L:1/8
K:C
e de| ce Be Ac|F2 AB cA|f2 fe     dc|B3
e de| ce Be Ac|F2 fe dc|BG Bd     cB|A3      :|
z zE|:AB cA ag|f2 fe dc|Bc dB     gf|e3  d cB |
      AB cA fe|d2 dc BA|B2 Bd [1 ^cd|B2 BB cB:|\
                              [2  cB|A3      |]

